X:1
T:Title
%%score { ( 1 3 ) | ( 2 4 ) }
L:1/8
M:9/8
K:G
V:1 treble nm="Grand Piano"
V:3 treble 
V:2 treble 
V:4 treble 
V:1
 z3 z3[Q:1/4=100] B2 A | G3- G2 D B,DG | G3 F3 c2 B | A3- A2 D z Fc |[M:3/4] B6 |[M:3/8] B2 c | %6
[M:9/8] d3- d2 B BA[D=FB] | [CEc]3 [G,CE]3 [CEA]2 [B,EG] | [A,DF]3- [A,DF]2 [DA] .[^CA]2 [G,CE] | %9
 z3 d3 c3 | B6 z3 | [GB]3 [FA]3 z3 | [Fc]6 z3 | [GB]6 z3 | [Gd]6 z3 | [CEc]3 [CE]3 z3 | %16
 A,2 A, A,2 [Fc] cB[CFA] |[M:3/4] [B,DG]6 |] %18
V:2
 z3 z3 [G,DG]2 [G,CD] | [G,B,D]3- [G,B,D]2 D, B,,D,G, | [A,CD]3 [A,CD]3 [D,A,D]2 [D,G,D] | %3
 [D,F,D]3- [D,F,D]2 [D,F,] D,-[D,A,][D,F,D] |[M:3/4][K:treble] [G,D]6 |[M:3/8] [G,D]2 [G,A,D] | %6
[M:9/8] [G,B,G]3- [G,B,G]2 [G,DG] GF[K:bass]G, | C,3 C,3 C,2 C, | D,3- D,2 [D,F,] z GA,, | %9
 [D,F,]3 [E,G,]3 [F,A,]3 | G2- [G,G-] [G,G]2 [G,B,D] D-[A,DF][G,DG] | [D,D]3 [D,D]3 z3 | %12
 [D,A,]2 D, D,2 [D,D] [D,D]2 [D,D] | [G,D]6 z3 | [G,B,]2 G, G,2[K:treble] [G,DG] GF[K:bass]G, | %15
 C,3 C,3 z3 | z3 z3 .A,3 |[M:3/4] G,,6 |] %18
V:3
 x9 | x9 | x9 | z3 z3 .D3 |[M:3/4] x6 |[M:3/8] x3 |[M:9/8] x9 | x9 | x9 | D8- D | z2 D D2 G GAB | %11
 x9 | z2 A, A,2 [FA] [FA][GB][Ac] | x9 | z2 B, B,2 B BA[D=FB] | x9 | [DF]6 .F3 |[M:3/4] x6 |] %18
V:4
 x9 | x9 | x9 | z3 z3 .F,3 |[M:3/4][K:treble] x6 |[M:3/8] x3 |[M:9/8] z3 z3 .[G,D]3[K:bass] | x9 | %8
 z3 z3 .[A,,E,]3 | x9 | .[G,D]3 z3 .B,3 | x9 | x9 | x9 | z3 z3[K:treble] .[G,D]3[K:bass] | x9 | %16
 D,2 D, D,2 [D,A,] D,-[D,D]D, |[M:3/4] x6 |] %18

